icons/procedure.svg

<svg id="_x33_0" enable-background="new 0 0 64 64" height="512" viewBox="0 0 64 64" width="512" xmlns="http://www.w3.org/2000/svg"><g><g><g><path d="m50 62h-48c0-2.76 1.12-5.26 2.93-7.07.33-.33.69-.64 1.07-.93 1.67-1.25 3.75-2 6-2h2 12 12 2c2.25 0 4.33.75 6 2 2.43 1.83 4 4.73 4 8z" fill="#b4dd7f"/></g><g><path d="m62 19v14c0 .55-.45 1-1 1h-4c-.55 0-1-.45-1-1v-1-12-1c0-.55.45-1 1-1h4c.55 0 1 .45 1 1z" fill="#aab2bd"/></g><g><path d="m56 20v12h-3c-.55 0-1-.45-1-1v-3-4-3c0-.55.45-1 1-1z" fill="#ccd1d9"/></g><g><path d="m52 24v4h-3c-.55 0-1-.45-1-1v-1-1c0-.55.45-1 1-1z" fill="#ccd1d9"/></g><g><path d="m26 2c-3.86 0-7.36 1.57-9.9 4.1-2.53 2.54-4.1 6.04-4.1 9.9v25.19c.27-.09.54-.16.82-.22l7.18-1.54c1.21-.26 2.13-1.23 2.34-2.44l.57-3.48c-1.52-.49-2.88-1.34-3.98-2.44-1.81-1.81-2.93-4.31-2.93-7.07v-6l.42-.07c3.63-.6 6.98-2.33 9.58-4.93 1.3 1.3 2.79 2.38 4.4 3.22 1.62.83 3.36 1.41 5.18 1.71l.42.07v6c0 .47-.03.92-.1 1.38v.01c.07.19.1.4.1.61 0 .56-.23 1.07-.61 1.42v.01h.01c-1.06 2.87-3.39 5.13-6.31 6.08l.57 3.48c.21 1.21 1.13 2.18 2.34 2.44l7.18 1.54c.28.06.55.13.82.22v-15.19-10c0-7.73-6.27-14-14-14z" fill="#fcd770"/></g><g><path d="m38 52h-12-12-2c-2.25 0-4.33.75-6 2v-4.6c0-.93.15-1.85.44-2.73.88-2.62 2.95-4.65 5.56-5.48.27-.09.54-.16.82-.22l7.18-1.54c1.21-.26 2.13-1.23 2.34-2.44l.57-3.48c.97.32 2.01.49 3.09.49s2.12-.17 3.09-.49l.57 3.48c.21 1.21 1.13 2.18 2.34 2.44l7.18 1.54c.28.06.55.13.82.22 2.61.83 4.68 2.86 5.56 5.48.29.88.44 1.8.44 2.73v4.6c-1.67-1.25-3.75-2-6-2z" fill="#f0d0b4"/></g><g><path d="m35.39 27.43h.01c-1.06 2.87-3.39 5.13-6.31 6.08-.97.32-2.01.49-3.09.49s-2.12-.17-3.09-.49c-1.52-.49-2.88-1.34-3.98-2.44-1.81-1.81-2.93-4.31-2.93-7.07v-6l.42-.07c3.63-.6 6.98-2.33 9.58-4.93 1.3 1.3 2.79 2.38 4.4 3.22 1.62.83 3.36 1.41 5.18 1.71l.42.07v6c0 .47-.03.92-.1 1.38-.26-.8-1.02-1.38-1.9-1.38-1.1 0-2 .9-2 2s.9 2 2 2c.54 0 1.03-.21 1.39-.57z" fill="#f0d0b4"/></g><g><path d="m35.9 25.39c.07.19.1.4.1.61 0 .56-.23 1.07-.61 1.42v.01c-.36.36-.85.57-1.39.57-1.1 0-2-.9-2-2s.9-2 2-2c.88 0 1.64.58 1.9 1.38z" fill="#ff826e"/></g></g><g><path d="m24.707 21.707-1.414-1.414-.293.292c-.535.535-1.465.535-2 0l-.293-.293-1.414 1.414.293.294c.646.645 1.503 1 2.414 1s1.769-.355 2.414-1z"/><path d="m32.707 21.707-1.414-1.414-.293.292c-.535.535-1.465.535-2 0l-.293-.293-1.414 1.414.293.294c.646.645 1.503 1 2.414 1s1.769-.355 2.414-1z"/><path d="m28 27.764c-.381.762-1.147 1.236-2 1.236s-1.619-.474-2-1.236l-.105-.211-1.789.895.105.21c.722 1.445 2.174 2.342 3.789 2.342s3.067-.897 3.789-2.342l.105-.211-1.789-.895z"/><path d="m9 57h8v2h-8z"/><path d="m19 57h4v2h-4z"/><path d="m27 55h14v2h-14z"/><path d="m61 17h-4c-1.103 0-2 .897-2 2h-2c-1.103 0-2 .897-2 2v2h-2c-1.103 0-2 .897-2 2h-6v-9c0-8.271-6.729-15-15-15s-15 6.729-15 15v24.506c-2.569 1.052-4.615 3.174-5.507 5.851-.327.982-.493 2.006-.493 3.042v4.122c-2.441 2.02-4 5.071-4 8.479v1h50v-1c0-3.408-1.559-6.459-4-8.479v-4.122c0-1.036-.166-2.06-.494-3.043-.891-2.676-2.937-4.798-5.506-5.851v-13.505h6c0 1.103.897 2 2 2h2v2c0 1.103.897 2 2 2h2c0 1.103.897 2 2 2h4c1.103 0 2-.897 2-2v-14c0-1.103-.897-2-2-2zm-35-14c7.168 0 13 5.832 13 13v9h-2.069c.03-.333.069-.664.069-1v-6.848l-1.256-.208c-3.443-.574-6.568-2.183-9.037-4.651l-.707-.707-.707.707c-2.469 2.468-5.594 4.077-9.037 4.651l-1.256.208v6.848c0 4.576 2.81 8.505 6.793 10.16l-.443 2.662c-.137.815-.746 1.455-1.555 1.627l-6.795 1.456v-23.905c0-7.168 5.832-13 13-13zm0 30c-4.963 0-9-4.038-9-9v-5.158c3.374-.639 6.46-2.171 9-4.463 2.54 2.292 5.626 3.824 9 4.463v4.342c-.314-.112-.648-.184-1-.184-1.654 0-3 1.346-3 3 0 1.479 1.077 2.703 2.487 2.948-1.644 2.475-4.434 4.052-7.487 4.052zm9-7c0 .551-.448 1-1 1s-1-.449-1-1 .448-1 1-1 1 .449 1 1zm13.944 35h-45.888c.499-4.494 4.319-8 8.944-8h28c4.625 0 8.445 3.506 8.944 8zm-4.336-14.012c.26.779.392 1.59.392 2.411v2.815c-1.502-.77-3.199-1.214-5-1.214h-1v-4h-2v4h-10v-2h-2v2h-10v-4h-2v4h-1c-1.801 0-3.498.444-5 1.214v-2.815c0-.821.132-1.632.391-2.411.85-2.547 3.009-4.479 5.636-5.042l7.188-1.541c1.615-.346 2.835-1.623 3.107-3.254l.398-2.392c.737.156 1.498.241 2.28.241.776 0 1.538-.089 2.279-.247l.4 2.399c.271 1.63 1.49 2.907 3.106 3.254l7.188 1.54c2.628.563 4.787 2.495 5.635 5.042zm-5.608-7.083-6.795-1.455c-.809-.173-1.418-.812-1.554-1.627l-.445-2.668c2.733-1.137 4.961-3.354 6.059-6.211.238-.277.425-.594.55-.944h2.185zm10-12.905v-2h2v2zm4 4v-10h2v10zm8 2h-4v-14h4z"/></g></g></svg>

<?xml version="1.0" encoding="UTF-8" standalone="no"?>
<svg
   xmlns:dc="http://purl.org/dc/elements/1.1/"
   xmlns:cc="http://creativecommons.org/ns#"
   xmlns:rdf="http://www.w3.org/1999/02/22-rdf-syntax-ns#"
   xmlns:svg="http://www.w3.org/2000/svg"
   xmlns="http://www.w3.org/2000/svg"
   xmlns:sodipodi="http://sodipodi.sourceforge.net/DTD/sodipodi-0.dtd"
   xmlns:inkscape="http://www.inkscape.org/namespaces/inkscape"
   inkscape:version="1.0 (4035a4fb49, 2020-05-01)"
   sodipodi:docname="procedure.svg"
   version="1.1"
   width="24"
   viewBox="0 0 3 3"
   height="24"
   enable-background="new 0 0 64 64"
   id="_x33_0">
  <metadata
     id="metadata59">
    <rdf:RDF>
      <cc:Work
         rdf:about="">
        <dc:format>image/svg+xml</dc:format>
        <dc:type
           rdf:resource="http://purl.org/dc/dcmitype/StillImage" />
        <dc:title></dc:title>
      </cc:Work>
    </rdf:RDF>
  </metadata>
  <defs
     id="defs57" />
  <sodipodi:namedview
     inkscape:current-layer="_x33_0"
     inkscape:window-maximized="1"
     inkscape:window-y="0"
     inkscape:window-x="0"
     inkscape:cy="29.658961"
     inkscape:cx="26.367518"
     inkscape:zoom="15.75"
     showgrid="false"
     id="namedview55"
     inkscape:window-height="1417"
     inkscape:window-width="2560"
     inkscape:pageshadow="2"
     inkscape:pageopacity="0"
     guidetolerance="10"
     gridtolerance="10"
     objecttolerance="10"
     borderopacity="1"
     bordercolor="#666666"
     pagecolor="#ffffff" />
  <g
     transform="matrix(0.0483871,0,0,0.0483871,-0.0483871,-0.0483871)"
     id="g52">
    <g
       id="g34">
      <g
         id="g4">
        <path
           id="path2"
           fill="#b4dd7f"
           d="M 50,62 H 2 C 2,59.24 3.12,56.74 4.93,54.93 5.26,54.6 5.62,54.29 6,54 7.67,52.75 9.75,52 12,52 h 2 12 12 2 c 2.25,0 4.33,0.75 6,2 2.43,1.83 4,4.73 4,8 z" />
      </g>
      <g
         id="g8">
        <path
           id="path6"
           fill="#aab2bd"
           d="m 62,19 v 14 c 0,0.55 -0.45,1 -1,1 h -4 c -0.55,0 -1,-0.45 -1,-1 V 32 20 19 c 0,-0.55 0.45,-1 1,-1 h 4 c 0.55,0 1,0.45 1,1 z" />
      </g>
      <g
         id="g12">
        <path
           id="path10"
           fill="#ccd1d9"
           d="m 56,20 v 12 h -3 c -0.55,0 -1,-0.45 -1,-1 v -3 -4 -3 c 0,-0.55 0.45,-1 1,-1 z" />
      </g>
      <g
         id="g16">
        <path
           id="path14"
           fill="#ccd1d9"
           d="m 52,24 v 4 h -3 c -0.55,0 -1,-0.45 -1,-1 v -1 -1 c 0,-0.55 0.45,-1 1,-1 z" />
      </g>
      <g
         id="g20">
        <path
           id="path18"
           fill="#fcd770"
           d="M 26,2 C 22.14,2 18.64,3.57 16.1,6.1 13.57,8.64 12,12.14 12,16 v 25.19 c 0.27,-0.09 0.54,-0.16 0.82,-0.22 L 20,39.43 c 1.21,-0.26 2.13,-1.23 2.34,-2.44 l 0.57,-3.48 C 21.39,33.02 20.03,32.17 18.93,31.07 17.12,29.26 16,26.76 16,24 v -6 l 0.42,-0.07 C 20.05,17.33 23.4,15.6 26,13 c 1.3,1.3 2.79,2.38 4.4,3.22 1.62,0.83 3.36,1.41 5.18,1.71 L 36,18 v 6 c 0,0.47 -0.03,0.92 -0.1,1.38 v 0.01 c 0.07,0.19 0.1,0.4 0.1,0.61 0,0.56 -0.23,1.07 -0.61,1.42 v 0.01 h 0.01 c -1.06,2.87 -3.39,5.13 -6.31,6.08 l 0.57,3.48 c 0.21,1.21 1.13,2.18 2.34,2.44 l 7.18,1.54 c 0.28,0.06 0.55,0.13 0.82,0.22 V 26 16 C 40,8.27 33.73,2 26,2 Z" />
      </g>
      <g
         id="g24">
        <path
           id="path22"
           fill="#f0d0b4"
           d="M 38,52 H 26 14 12 C 9.75,52 7.67,52.75 6,54 V 49.4 C 6,48.47 6.15,47.55 6.44,46.67 7.32,44.05 9.39,42.02 12,41.19 12.27,41.1 12.54,41.03 12.82,40.97 L 20,39.43 c 1.21,-0.26 2.13,-1.23 2.34,-2.44 l 0.57,-3.48 C 23.88,33.83 24.92,34 26,34 c 1.08,0 2.12,-0.17 3.09,-0.49 l 0.57,3.48 c 0.21,1.21 1.13,2.18 2.34,2.44 l 7.18,1.54 c 0.28,0.06 0.55,0.13 0.82,0.22 2.61,0.83 4.68,2.86 5.56,5.48 0.29,0.88 0.44,1.8 0.44,2.73 V 54 c -1.67,-1.25 -3.75,-2 -6,-2 z" />
      </g>
      <g
         id="g28">
        <path
           id="path26"
           fill="#f0d0b4"
           d="M 35.39,27.43 H 35.4 C 34.34,30.3 32.01,32.56 29.09,33.51 28.12,33.83 27.08,34 26,34 24.92,34 23.88,33.83 22.91,33.51 21.39,33.02 20.03,32.17 18.93,31.07 17.12,29.26 16,26.76 16,24 v -6 l 0.42,-0.07 C 20.05,17.33 23.4,15.6 26,13 c 1.3,1.3 2.79,2.38 4.4,3.22 1.62,0.83 3.36,1.41 5.18,1.71 L 36,18 v 6 c 0,0.47 -0.03,0.92 -0.1,1.38 C 35.64,24.58 34.88,24 34,24 c -1.1,0 -2,0.9 -2,2 0,1.1 0.9,2 2,2 0.54,0 1.03,-0.21 1.39,-0.57 z" />
      </g>
      <g
         id="g32">
        <path
           id="path30"
           fill="#ff826e"
           d="m 35.9,25.39 c 0.07,0.19 0.1,0.4 0.1,0.61 0,0.56 -0.23,1.07 -0.61,1.42 v 0.01 C 35.03,27.79 34.54,28 34,28 c -1.1,0 -2,-0.9 -2,-2 0,-1.1 0.9,-2 2,-2 0.88,0 1.64,0.58 1.9,1.38 z" />
      </g>
    </g>
    <g
       id="g50">
      <path
         id="path36"
         d="M 24.707,21.707 23.293,20.293 23,20.585 c -0.535,0.535 -1.465,0.535 -2,0 L 20.707,20.292 19.293,21.706 19.586,22 c 0.646,0.645 1.503,1 2.414,1 0.911,0 1.769,-0.355 2.414,-1 z" />
      <path
         id="path38"
         d="M 32.707,21.707 31.293,20.293 31,20.585 c -0.535,0.535 -1.465,0.535 -2,0 L 28.707,20.292 27.293,21.706 27.586,22 c 0.646,0.645 1.503,1 2.414,1 0.911,0 1.769,-0.355 2.414,-1 z" />
      <path
         id="path40"
         d="M 28,27.764 C 27.619,28.526 26.853,29 26,29 25.147,29 24.381,28.526 24,27.764 l -0.105,-0.211 -1.789,0.895 0.105,0.21 C 22.933,30.103 24.385,31 26,31 c 1.615,0 3.067,-0.897 3.789,-2.342 l 0.105,-0.211 -1.789,-0.895 z" />
      <path
         id="path42"
         d="m 9,57 h 8 v 2 H 9 Z" />
      <path
         id="path44"
         d="m 19,57 h 4 v 2 h -4 z" />
      <path
         id="path46"
         d="m 27,55 h 14 v 2 H 27 Z" />
      <path
         id="path48"
         d="m 61,17 h -4 c -1.103,0 -2,0.897 -2,2 h -2 c -1.103,0 -2,0.897 -2,2 v 2 h -2 c -1.103,0 -2,0.897 -2,2 H 41 V 16 C 41,7.729 34.271,1 26,1 17.729,1 11,7.729 11,16 V 40.506 C 8.431,41.558 6.385,43.68 5.493,46.357 5.166,47.339 5,48.363 5,49.399 v 4.122 C 2.559,55.541 1,58.592 1,62 v 1 h 50 v -1 c 0,-3.408 -1.559,-6.459 -4,-8.479 V 49.399 C 47,48.363 46.834,47.339 46.506,46.356 45.615,43.68 43.569,41.558 41,40.505 V 27 h 6 c 0,1.103 0.897,2 2,2 h 2 v 2 c 0,1.103 0.897,2 2,2 h 2 c 0,1.103 0.897,2 2,2 h 4 c 1.103,0 2,-0.897 2,-2 V 19 c 0,-1.103 -0.897,-2 -2,-2 z M 26,3 c 7.168,0 13,5.832 13,13 v 9 H 36.931 C 36.961,24.667 37,24.336 37,24 V 17.152 L 35.744,16.944 C 32.301,16.37 29.176,14.761 26.707,12.293 L 26,11.586 25.293,12.293 c -2.469,2.468 -5.594,4.077 -9.037,4.651 L 15,17.152 V 24 c 0,4.576 2.81,8.505 6.793,10.16 l -0.443,2.662 c -0.137,0.815 -0.746,1.455 -1.555,1.627 L 13,39.905 V 16 C 13,8.832 18.832,3 26,3 Z m 0,30 c -4.963,0 -9,-4.038 -9,-9 v -5.158 c 3.374,-0.639 6.46,-2.171 9,-4.463 2.54,2.292 5.626,3.824 9,4.463 v 4.342 C 34.686,23.072 34.352,23 34,23 c -1.654,0 -3,1.346 -3,3 0,1.479 1.077,2.703 2.487,2.948 C 31.843,31.423 29.053,33 26,33 Z m 9,-7 c 0,0.551 -0.448,1 -1,1 -0.552,0 -1,-0.449 -1,-1 0,-0.551 0.448,-1 1,-1 0.552,0 1,0.449 1,1 z M 48.944,61 H 3.056 C 3.555,56.506 7.375,53 12,53 h 28 c 4.625,0 8.445,3.506 8.944,8 z M 44.608,46.988 c 0.26,0.779 0.392,1.59 0.392,2.411 v 2.815 C 43.498,51.444 41.801,51 40,51 h -1 v -4 h -2 v 4 H 27 v -2 h -2 v 2 H 15 v -4 h -2 v 4 h -1 c -1.801,0 -3.498,0.444 -5,1.214 v -2.815 c 0,-0.821 0.132,-1.632 0.391,-2.411 0.85,-2.547 3.009,-4.479 5.636,-5.042 l 7.188,-1.541 c 1.615,-0.346 2.835,-1.623 3.107,-3.254 L 23.72,34.759 C 24.457,34.915 25.218,35 26,35 c 0.776,0 1.538,-0.089 2.279,-0.247 l 0.4,2.399 c 0.271,1.63 1.49,2.907 3.106,3.254 l 7.188,1.54 c 2.628,0.563 4.787,2.495 5.635,5.042 z M 39,39.905 32.205,38.45 c -0.809,-0.173 -1.418,-0.812 -1.554,-1.627 l -0.445,-2.668 c 2.733,-1.137 4.961,-3.354 6.059,-6.211 C 36.503,27.667 36.69,27.35 36.815,27 H 39 Z M 49,27 v -2 h 2 v 2 z m 4,4 V 21 h 2 v 10 z m 8,2 H 57 V 19 h 4 z" />
    </g>
  </g>
</svg>
